www/assets/icons/border_outer.svg

<svg xmlns="http://www.w3.org/2000/svg" width="24" height="24" viewBox="0 0 24 24" fill='currentColor'><path d="M13 7h-2v2h2zm0 4h-2v2h2zm4 0h-2v2h2zM3 3v18h18V3zm16 16H5V5h14zm-6-4h-2v2h2zm-4-4H7v2h2z"/></svg>

<svg width="24" height="24" viewBox="0 0 24 24" xmlns="http://www.w3.org/2000/svg" fill='currentColor'><path d="M13 7H11V9H13V7ZM13 11H11V13H13V11ZM17 11H15V13H17V11ZM3 3V21H21V3H3ZM19 19H5V5H19V19ZM13 15H11V17H13V15ZM9 11H7V13H9V11Z"/></svg>
